X:1
T:Title
%%score ( 1 2 3 ) { 4 | 5 }
L:1/8
M:3/4
K:C
V:1 treble nm="Bright Piano"
V:2 treble 
V:3 treble 
V:4 bass nm="Bright Piano"
V:5 bass 
V:1
 z2 z2[Q:1/4=86] [EG]>[DF] | [DF]2 [CE]2 [Cc]>[FA] | [FA]2 [EG]2 [CE][CG] | %3
 [B,G]2 [B,F]2 [B,D][DF] | [DF]2 [CE]2 [Ec]>[GB] | [GB]2 [FA]2 [Ac]>[FA] | [FA]2 [EG]2 [Ge][Gc] | %7
 [GB]3 [FA] [EG]>[DF] | [DF]2 [CE]2 [CE][DG] | z2 e4 |[M:2/4] [Ec]4 |] %11
V:2
 x6 | x6 | x6 | x6 | x6 | x6 | x6 | x6 | x6 | [Gc][EG] G2 z d |[M:2/4] x4 |] %11
V:3
 x6 | x6 | x6 | x6 | x6 | x6 | x6 | x6 | x6 | z2 z2 F2 |[M:2/4] x4 |] %11
V:4
 z2 z2 C>G, | G,4 A,>C | C4 G,E, | D,2 G,2 G,G, | G,4 G,>G, | C2 C2 C>C | C2 C2 CC | %7
 C3 C[K:bass] B,>B, | B,2 A,2 A,B, | G,C C2 B,2 |[M:2/4] G,4 |] %11
V:5
 z2 z2 C,>B,, | C,4 F,>F, | C,4 C,C, | G,,2 G,,2 z2 | C,4 C,>E, | F,2 F,2 F,>A, | z2 C,2 C,E, | %7
 F,3 F, G,>G,, | ^G,,2 A,,2 z G, | E,C, G,2 G,2 |[M:2/4] C,4 |] %11

